X:1
T:Haydn – The Creation
T:Joseph Haydn Engraved by R. L. Roy
T:Excerpt 1 No. 26: Beginning to [C]
T:Bass Trombone
T:www.brassexcerpts.com This work is made available under the Creative Commons CC0 1.0 Universal Public Domain Dedication. You can copy, modify, distribute and perform the work, even for commercial purposes, all without asking permission.
Z:www.brassexcerpts.com
Z:This work is made available under the Creative Commons CC0 1.0 Universal Public Domain Dedication.
Z:You can copy, modify, distribute and perform the work, even for commercial purposes, all without asking permission.
L:1/8
Q:1/4=116
M:4/4
K:Bb
V:1 bass nm="Piano" snm="Pno."
V:1
"^Vivace"!f! B,,D,/F,/ .B,.A, .B,.F, G,E,/D,/ | C,D,/E,/ .F,.F,, B,,B,/A,/ B,B,, | %2
 .A,,.A,.A,.A, G,G/^F/ GG, | =F,=FFF E,E/D/ EE, | D,D/^C/ DD, =C,B,,E,F, | %5
 B,,D,/F,/ B,F, G,D, G,E,/D,/ | C,D,/E,/ F,F,, B,,B,/A,/ B,B,, | A,,A,A,A,, G,,G,/^F,/ G,G,, | %8
 =F,,=F,F,F,, E,,E,/D,/ E,E, | D,D/C/ DD, C,A,B,=E, | F,_E, D,B,,/D,/ F,2 z2 | z F,D,B,, F,2 z2 | %12
"^A" z F,D,B,, F,E,D,C, | B,,G,/F,/ E,D, C,C z C, | F,F,, z F, G, z z2 | z2 z C FF,F,F, | %16
 B,3 _A, G,G,, G,/=A,/=B, | CG,_A,G, F,3 ^F, |"^B" G,=F,E,D, E,D,C,B,, | %19
 _A,,G,, F,,G,,/A,,/ B,,_A,G,F, | E,.E,.E,.E, _A,4 | z .F,.F,.F, B,4 | z .G,.G,.G, CB,A,A, | %23
 B,B,,E,=E, .F,._E,.D,.C, | B,,2 z2 z .E.D.C | B,2 z2 z ._A,.G,.F, | E,3 E, F, z F,, z | %27
 B,,.E,.D,.C, B,,2 z2 | z .E.D.C B,2 z2 | z ._A,.G,.F, E,3 E, | F, z F, z B, z E,2 | %31
 (F,3 ^F,) G, z E, z | =F, z F, z B,,B,/A,/ B,B,, | A,,A,A,A, G,G/^F/ GG, | =F,=FFF E,EDD, | %35
 C,B,,E,F, B,G,E,F, | B,,2 z4 z2 || %37

